Sources/FrostedUI/Resources/Icons.xcassets/whopLogo24.imageset/whop-logo-24.svg

<svg width="24" height="24" viewBox="0 0 24 24" fill="none" xmlns="http://www.w3.org/2000/svg" data-fui-icon="true">
  <path
    d="M19.4209 6.87561C20.4273 6.87571 21.4547 7.62409 22 8.37463H21.9912L14.1152 16.2496C12.9493 17.4156 11.04 17.4156 9.87402 16.2496L9.12109 15.4967L16.2412 8.37463C16.2537 8.35922 16.5146 8.10413 16.5146 8.10413C17.2003 7.45203 18.1067 6.87561 19.4209 6.87561ZM12.29 6.87561C13.2964 6.87561 14.3238 7.62411 14.8691 8.37463L8.43555 14.8102L5.56055 11.9352L9.12012 8.37463C9.1352 8.3561 9.38379 8.10413 9.38379 8.10413C10.0694 7.45198 10.9758 6.87568 12.29 6.87561ZM5.17969 6.87561C6.18559 6.87566 7.2135 7.62408 7.75879 8.37463L4.87988 11.2545L2 8.37463C2.00179 8.36195 2.27344 8.10413 2.27344 8.10413C2.9591 7.45201 3.86543 6.87561 5.17969 6.87561Z"
    fill="currentColor"
  />
</svg>

<svg xmlns="http://www.w3.org/2000/svg" width="24" height="24" fill="none" data-fui-icon="true" viewBox="0 0 24 24"><path fill="currentColor" d="M19.42 6.876c1.007 0 2.035.748 2.58 1.499h-.009l-7.876 7.875a3.01 3.01 0 0 1-4.241 0l-.753-.753 7.12-7.122c.013-.016.274-.27.274-.27.685-.653 1.592-1.23 2.906-1.23m-7.13 0c1.006 0 2.034.748 2.58 1.499L8.435 14.81 5.56 11.935l3.56-3.56c.014-.019.263-.27.263-.27.685-.653 1.592-1.23 2.906-1.23m-7.11 0c1.006 0 2.034.748 2.579 1.499l-2.88 2.88L2 8.375c.002-.013.273-.27.273-.27.686-.653 1.592-1.23 2.907-1.23"/></svg>
